polaris-icons/icons/new-icons/EnterMajor.svg

<svg width="20" height="20" viewBox="0 0 20 20" fill="none" xmlns="http://www.w3.org/2000/svg">
<path fill-rule="evenodd" clip-rule="evenodd" d="M9.75 3C8.50736 3 7.5 4.00736 7.5 5.25C7.5 5.66421 7.83579 6 8.25 6C8.66421 6 9 5.66421 9 5.25C9 4.83579 9.33579 4.5 9.75 4.5H13.75C14.1642 4.5 14.5 4.83579 14.5 5.25V14.75C14.5 15.1642 14.1642 15.5 13.75 15.5H9.75C9.33579 15.5 9 15.1642 9 14.75C9 14.3358 8.66421 14 8.25 14C7.83579 14 7.5 14.3358 7.5 14.75C7.5 15.9926 8.50736 17 9.75 17H13.75C14.9926 17 16 15.9926 16 14.75V5.25C16 4.00736 14.9926 3 13.75 3H9.75ZM4.75 9.25C4.33579 9.25 4 9.58579 4 10C4 10.4142 4.33579 10.75 4.75 10.75H10.4393L9.46967 11.7197C9.17678 12.0126 9.17678 12.4874 9.46967 12.7803C9.76256 13.0732 10.2374 13.0732 10.5303 12.7803L12.7803 10.5303C12.921 10.3897 13 10.1989 13 10C13 9.80109 12.921 9.61032 12.7803 9.46967L10.5303 7.21967C10.2374 6.92678 9.76256 6.92678 9.46967 7.21967C9.17678 7.51256 9.17678 7.98744 9.46967 8.28033L10.4393 9.25H4.75Z" fill="#4A4A4A"/>
</svg>

<svg viewBox="0 0 20 20" xmlns="http://www.w3.org/2000/svg"><path fill-rule="evenodd" d="M9.75 3a2.25 2.25 0 0 0-2.25 2.25.75.75 0 0 0 1.5 0 .75.75 0 0 1 .75-.75h4a.75.75 0 0 1 .75.75v9.5a.75.75 0 0 1-.75.75h-4a.75.75 0 0 1-.75-.75.75.75 0 0 0-1.5 0 2.25 2.25 0 0 0 2.25 2.25h4a2.25 2.25 0 0 0 2.25-2.25v-9.5a2.25 2.25 0 0 0-2.25-2.25h-4Zm-5 6.25a.75.75 0 0 0 0 1.5h5.69l-.97.97a.75.75 0 1 0 1.06 1.06l2.25-2.25a.75.75 0 0 0 0-1.06l-2.25-2.25a.75.75 0 1 0-1.06 1.06l.97.97h-5.69Z" fill="#5C5F62"/></svg>
